icon/pk/thinking-problem.svg

<svg viewBox="0 0 48 48" fill="none" xmlns="http://www.w3.org/2000/svg" height="1em" width="1em">
  <path d="M38 21L43 30L38 31V37H35L29 36L28 43H13L11 32.619C7.92077 29.7028 6 25.5757 6 21C6 12.1634 13.1634 5 22 5C30.8366 5 38 12.1634 38 21Z" fill="#2F88FF" stroke="black" stroke-width="4" stroke-linecap="round" stroke-linejoin="round"/>
  <path d="M17 19C17 16.2386 19.2386 14 22 14C24.7614 14 27 16.2386 27 19C27 21.7614 24.7614 24 22 24V27" stroke="white" stroke-width="4" stroke-linecap="round" stroke-linejoin="round"/>
  <path d="M22 33V34" stroke="white" stroke-width="4" stroke-linecap="round" stroke-linejoin="round"/>
</svg>

<svg width="48" height="48" fill="none" xmlns="http://www.w3.org/2000/svg"><path d="m38 21 5 9-5 1v6h-3l-6-1-1 7H13l-2-10.381C7.92 29.703 6 25.576 6 21c0-8.837 7.163-16 16-16s16 7.163 16 16Z" fill="#2F88FF" stroke="#000" stroke-width="4" stroke-linecap="round" stroke-linejoin="round"/><path d="M17 19a5 5 0 1 1 5 5v3M22 33v1" stroke="#fff" stroke-width="4" stroke-linecap="round" stroke-linejoin="round"/></svg>
